src/assets/logo/logo-color-gradient-1.svg

<svg width="123" height="169" viewBox="0 0 123 169" fill="none" xmlns="http://www.w3.org/2000/svg">
<path d="M57.677 38.1C58.636 38.1 59.5037 37.9402 60.28 37.6205C61.102 37.2552 61.7642 36.9127 62.2665 36.593C62.8145 36.2733 63.157 36.1135 63.294 36.1135C63.431 36.1135 63.5223 36.182 63.568 36.319C63.6593 36.4103 63.7735 36.7528 63.9105 37.3465L69.6645 59.746C69.7102 59.9743 69.7102 60.157 69.6645 60.294C69.6188 60.3853 69.5503 60.431 69.459 60.431C69.3677 60.4767 69.2763 60.4767 69.185 60.431C69.0937 60.3853 68.9795 60.2712 68.8425 60.0885C66.0568 54.7455 63.4767 50.567 61.102 47.553C58.773 44.4933 56.444 42.347 54.115 41.114C51.8317 39.881 49.3885 39.2645 46.7855 39.2645H28.496V130.438C28.496 130.986 28.77 131.397 29.318 131.671C29.866 131.945 30.688 132.128 31.784 132.219L40.3465 133.178C40.5748 133.178 40.7347 133.224 40.826 133.315C40.963 133.361 41.0315 133.452 41.0315 133.589C41.0315 133.68 40.9858 133.772 40.8945 133.863C40.8032 133.954 40.6433 134 40.415 134H5.48C5.29733 134 5.16033 133.954 5.069 133.863C4.97767 133.772 4.932 133.68 4.932 133.589C4.932 133.361 5.16033 133.224 5.617 133.178L11.9875 132.219C12.8095 132.082 13.4032 131.899 13.7685 131.671C14.1795 131.397 14.385 130.986 14.385 130.438V41.662C14.385 41.114 14.1795 40.703 13.7685 40.429C13.4032 40.155 12.8095 39.9723 11.9875 39.881L5.617 38.922C5.16033 38.8763 4.932 38.7393 4.932 38.511C4.932 38.374 4.97767 38.2827 5.069 38.237C5.16033 38.1457 5.29733 38.1 5.48 38.1H57.677ZM24.523 85.913H44.5935C48.2012 85.913 50.8955 85.1367 52.6765 83.584C54.4575 81.9857 55.3708 79.0858 55.4165 74.8845C55.4622 74.6562 55.5078 74.5192 55.5535 74.4735C55.6448 74.3822 55.7362 74.3365 55.8275 74.3365C56.1015 74.2908 56.3298 74.542 56.5125 75.09L62.061 97.01C62.1523 97.1927 62.1523 97.3525 62.061 97.4895C62.0153 97.6265 61.9468 97.7178 61.8555 97.7635C61.7642 97.7635 61.65 97.7635 61.513 97.7635C61.4217 97.7178 61.3075 97.6265 61.1705 97.4895C59.3895 94.7952 57.7912 92.6945 56.3755 91.1875C55.0055 89.6805 53.5213 88.6302 51.923 88.0365C50.3703 87.3972 48.4752 87.0775 46.2375 87.0775H24.523V85.913Z" fill="url(#paint0_linear_3_17)" style=""/>
<path d="M69.6 134L81.2 61H97.2C101.733 61 105.533 61.9333 108.6 63.8C111.667 65.6 113.867 68.1667 115.2 71.5C116.6 74.7667 116.933 78.6 116.2 83L111.6 112C110.933 116.4 109.367 120.267 106.9 123.6C104.5 126.867 101.467 129.433 97.8 131.3C94.2 133.1 90.1333 134 85.6 134H69.6ZM75.3 129.4H86.3C91.5667 129.4 96.0333 127.833 99.7 124.7C103.433 121.5 105.733 117.267 106.6 112L111.2 83C112 77.8 111.033 73.6 108.3 70.4C105.567 67.2 101.6 65.6 96.4 65.6H85.4L75.3 129.4Z" fill="url(#paint1_linear_3_17)" style=""/>
<defs>
<linearGradient id="paint0_linear_3_17" x1="9.36585" y1="137" x2="84.3903" y2="95.0795" gradientUnits="userSpaceOnUse">
<stop stop-color="#2F00FF" style="stop-color:#2F00FF;stop-color:color(display-p3 0.1833 0.0000 1.0000);stop-opacity:1;"/>
<stop offset="1" stop-color="#00FF44" style="stop-color:#00FF44;stop-color:color(display-p3 0.0000 1.0000 0.2667);stop-opacity:1;"/>
</linearGradient>
<linearGradient id="paint1_linear_3_17" x1="70.8049" y1="139.006" x2="131.333" y2="102.922" gradientUnits="userSpaceOnUse">
<stop stop-color="#2F00FF" style="stop-color:#2F00FF;stop-color:color(display-p3 0.1833 0.0000 1.0000);stop-opacity:1;"/>
<stop offset="1" stop-color="#00FF44" style="stop-color:#00FF44;stop-color:color(display-p3 0.0000 1.0000 0.2667);stop-opacity:1;"/>
</linearGradient>
</defs>
</svg>

<svg xmlns="http://www.w3.org/2000/svg" width="123" height="169" fill="none" viewBox="0 0 123 169"><path fill="url(#a)" d="M57.677 38.1q1.439 0 2.603-.48 1.233-.547 1.986-1.027.823-.48 1.028-.48t.274.206q.137.137.343 1.027l5.754 22.4q.068.342 0 .548-.07.137-.206.137a.29.29 0 0 1-.274 0q-.137-.069-.343-.342-4.177-8.015-7.74-12.536-3.494-4.59-6.987-6.439a15.2 15.2 0 0 0-7.33-1.85H28.496v91.174q0 .822.822 1.233t2.466.548l8.563.959q.342 0 .479.137.206.069.206.274 0 .137-.137.274-.138.137-.48.137H5.48q-.274 0-.411-.137t-.137-.274q0-.342.685-.411l6.37-.959q1.233-.206 1.781-.548.617-.411.617-1.233V41.662q0-.822-.617-1.233-.548-.411-1.78-.548l-6.371-.959q-.685-.069-.685-.411 0-.205.137-.274.136-.137.411-.137zM24.523 85.913h20.07q5.412 0 8.083-2.329 2.673-2.397 2.74-8.7.069-.342.138-.41.136-.138.273-.138.412-.068.686.754l5.548 21.92q.137.275 0 .48-.068.205-.206.273h-.342a1.5 1.5 0 0 1-.343-.273q-2.67-4.042-4.794-6.302-2.055-2.262-4.453-3.151-2.33-.96-5.686-.96H24.524z"/><path fill="url(#b)" d="m69.6 134 11.6-73h16q6.8 0 11.4 2.8 4.6 2.7 6.6 7.7 2.1 4.9 1 11.5l-4.6 29q-1 6.6-4.7 11.6-3.6 4.9-9.1 7.7-5.4 2.7-12.2 2.7zm5.7-4.6h11q7.9 0 13.4-4.7 5.6-4.8 6.9-12.7l4.6-29q1.2-7.8-2.9-12.6t-11.9-4.8h-11z"/><defs><linearGradient id="a" x1="9.366" x2="84.39" y1="137" y2="95.079" gradientUnits="userSpaceOnUse"><stop stop-color="#2f00ff" style="stop-color:#2f00ff;stop-color:color(display-p3 .1833 0 1);stop-opacity:1"/><stop offset="1" stop-color="#0f4" style="stop-color:#0f4;stop-color:color(display-p3 0 1 .2667);stop-opacity:1"/></linearGradient><linearGradient id="b" x1="70.805" x2="131.333" y1="139.006" y2="102.922" gradientUnits="userSpaceOnUse"><stop stop-color="#2f00ff" style="stop-color:#2f00ff;stop-color:color(display-p3 .1833 0 1);stop-opacity:1"/><stop offset="1" stop-color="#0f4" style="stop-color:#0f4;stop-color:color(display-p3 0 1 .2667);stop-opacity:1"/></linearGradient></defs></svg>
